**kern	**text
*clefG2	*
*k[b-e-a-d-g-]	*
*M4/4	*
*MM171	*
=1	=1
1r	.
=2	=2
8.b-L	- じょ
[16b-Jk	o だ
16b-LL]	.
16b-J	a ん
[8b-J	n ま
8b-L]	.
8e-	a じ
8e-	i り
8d-J	i の
=3	=3
8.e-L	o きょ
[16g-Jk	o か
32g-KLL]	.
16.g-J	a い
[8e-J	i せ
16e-KL]	.
8.e-J	e ん
4d-	n じょ
=4	=4
8b-L	- か
16b-L	a い
16b-JJ	i だ
8b-L	a ん
[8b-J	n の
8b-L]	.
8a-	o そ
8g-	o の
8a-J	o ま
=5	=5
8.dd-L	a た
[16a-Jk	a む
8a-L]	.
[8b-J	u こ
4.b-_	.
16b-]	.
16r	.
=6	=6
8b-L	- ぜ
16b-L	e ん
[16b-JJ	n ぜ
16.b-LL]	.
32b-JK	e ん
[8b-J	n い
16b-KL]	.
8.e-J	i い
8e-L	i こ
8d-J	o と
=7	=7
8.e-L	o も
[16g-Jk	o な
32g-KLL]	.
16.g-J	a い
[8e-J	i し
4e-]	.
4d-	i ね
=8	=8
8.b-L	- そ
[16b-Jk	o の
8b-L]	.
[8b-J	o て
8b-L]	.
8a-	e を
8g-	o ひ
8a-J	i て
=9	=9
4dd-	e み
4b-	i よ
4a-	o お
4b-	o か
=10	=10
16.b-LL	- さ
[32b-K	a ん
16b-]	.
[16b-JJ	n ざ
32b-KLL]	.
16.b-J	a ん
[8b-J	n つ
8b-L]	.
8e-	u ま
8e-	a ず
8d-J	u い
=11	=11
8.e-L	i た
16g-Jk	a だ
8g-L	a ん
[8e-J	n そ
8e-]	.
8r	.
4d-	そ
=12	=12
16.b-LL	o さ
[32b-K	a い
16b-]	.
16b-JJ	i だ
8b-L	a ん
[8b-J	n の
8b-L]	.
8a-	o う
8g-	u え
8a-J	e で
=13	=13
[8b-L	e お
32b-KL]	.
16.b-JJ	o R
6dd-	- ど
12dd-'	o R
4gg-	- る
4dd-	u の
=14	=14
*^	*
8r	5b-	.
16r	.	.
32r	.	.
.	10r	.
[32b-	.	o ぜ
16b-]	.	.
.	10b-L	e ん
16r	.	.
8r	.	.
.	[10b-J	n に
2r	8b-L]	.
.	8e-	i め
.	8e-	e が
.	8d-J	a く
=15	=15	=15
4r	10e-L	.
.	10e-	a ん
.	10g-J	n じゃ
16r	.	.
.	10r	.
8.g-'	.	a う
.	[10e-	u か
2r	4e-]	.
.	4d-	a ら
*v	*v	*
=16	=16
8.b-L	a ど
[16b-Jk	o で
8b-L]	.
[8b-J	e しょ
8b-L]	.
8a-	o い
8g-	i い
8a-J	i しょ
=17	=17
8.b-L	o に
16b-Jk	i R
8.dd-L	- こ
16dd-Jk	o R
4gg-	- こ
4dd-	o で
=18	=18
4dd-'	e R
4r	.
2r	.
=19	=19
1r	.
=20	=20
1r	.
=21	=21
1r	.
=22	=22
1r	.
=23	=23
1r	.
=24	=24
1r	.
=25	=25
1r	.
=26	=26
16b-LL	- か
16b-	a ん
16b-	n だ
[16b-JJ	a か
32b-KLL]	.
16.b-J	a い
[8b-J	i こ
12b-]	.
6e-	o え
8e-L	e が
8d-J	a へ
=27	=27
6e-	e や
[12g-	a お
16g-LL]	.
16g-J	o う
[8e-J	u め
8e-L_	.
32e-KL]	.
16.e-JJ	e る
4d-	u よ
=28	=28
16.b-LL	o さ
[32b-K	a い
16b-]	.
[16b-JJ	i て
32b-KLL]	.
16.b-J	e い
[8b-J	i な
8b-L]	.
8a-	a い
8g-	i み
8a-J	i を
=29	=29
8.dd-L	o う
[16ee-Jk	u ず
8ee-L]	.
[8ee-J	u ま
8ee-L]	.
8dd-J	a い
[8b-L	i て
32b-KL]	.
16.b-JJ	e R
=30	=30
8.b-L	と
[16b-Jk	o ぜ
16b-LL]	.
16b-J	e ん
[8ee-J	n い
4ee-]	.
8e-L	i こ
8d-J	o と
=31	=31
8.e-L	o も
[16g-Jk	o な
32g-KLL]	.
16.g-J	a い
[8e-J	i し
4e-]	.
4d-	i さ
=32	=32
8.b-L	a お
[16b-Jk	o も
16b-LL]	.
16b-J	o い
[8b-J	i き
8b-L]	.
8a-	i り
8g-	i は
8a-J	a き
=33	=33
4a-	i だ
4b-	a そ
4gg-	o お
4dd-	o か
=34	=34
16b-LL	a み
16b-	i じ
16b-	i か
16b-JJ	a い
16b-LL	i こ
16b-	o と
16b-	o ば
16b-JJ	a で
16b-LL	e つ
16b-	u な
16b-	a が
16b-JJ	a る
16dd-LL	u い
16dd-J	i み
8b-J	i お
=35	=35
16b-LL	- か
16b-	a お
16b-	o も
16b-JJ	o あ
16b-LL	a わ
16b-	a せ
16b-	e ず
16b-JJ	u に
16b-LL	i け
16b-	e ぎ
16b-	i ら
16b-JJ	a う
16dd-LL	u わ
16dd-J	a け
8b-J	e お
=36	=36
16b-LL	- さ
16b-	a が
16b-	a し
16b-JJ	i て
8b-L	e も
16b-L	- さ
16b-JJ	a が
16b-LL	a し
16b-J	i て
8b-J	e も
16b-LL	- み
16b-	i つ
16b-	u か
16b-JJ	a ら
=37	=37
4ee-	a な
4b-	a い
4a-	i け
4b-	e ど
=38	=38
16b-LL	o は
16b-	a に
16b-	i か
16b-JJ	a み
16b-LL	i な
16b-	a が
16b-	a ら
16b-JJ	a お
8b-L	o こ
8dd-J	o た
4b-	a て
=39	=39
16b-LL	- め
16b-	e お
16b-	o ふ
16b-JJ	u せ
16b-LL	e な
16b-	a が
16b-	a ら
16b-JJ	a わ
8b-L	a ら
8dd-J	a た
4b-	a て
=40	=40
8b-L	- そ
8b-	o ん
8b-	n な
8b-J	a の
4ee-	o ど
8ee-L	o せ
8ee-J	e つ
=41	=41
8ffL	u ま
8ff	a ら
8ff	a な
8ffJ	a い
2ff'	i わ
=42	=42
[8ffL	- ほ
32ffKL]	.
16.ffJJ	o R
8b-L	- ぷ
8b-J	u す
[8ffL	u て
32ffKL]	.
16.ffJJ	e R
8b-L	- ぷ
8b-J	u で
=43	=43
8ee-L	e お
8ff	o ど
8ee-	o ろ
8dd-J	o お
8.ee-L	o か
16ee-Jk	a R
4ff	- せ
=44	=44
[8ee-L	e か
32ee-KL]	.
16.ee-JJ	a R
8r	.
8ff	- い
[8ee-L	i の
32ee-KL]	.
16.ee-JJ	o R
8r	.
8ff	- す
=45	=45
8ee-L	u み
8ff	i い
8ee-	i こ
8ffJ	o で
8aa-L	e わ
8aa-J	a ん
4b-	n つ
=46	=46
[8ffL	u ちょ
32ffKL]	.
16.ffJJ	o R
8b-L	- と
8b-J	o く
[8ffL	u ら
32ffKL]	.
16.ffJJ	a R
8b-L	- と
8b-J	o し
=47	=47
8gg-L	i そ
8aa-	o お
8gg-	o に
8ffJ	i な
4ee-	a る
4ff	- しゅ
=48	=48
[8ee-L	u う
32ee-KL]	.
16.ee-JJ	u R
8r	.
8ff	- ま
8.ee-L	a つ
16ee-Jk	u R
8r	.
8ff	- か
=49	=49
8ee-L	a ん
8ff	n お
8ee-	o た
8ffJ	a の
8aanL	o し
8aaJ	i ん
4ccc	n で
=50	=50
4ff	e ぱ
8b-L	- と
8b-J	o ふ
4ff	u ら
8b-L	- と
8b-J	o き
=51	=51
8ee-L	i え
8ff	e ちゃ
8ee-	a い
8dd-J	i そ
4ee-	o な
4ff	- つ
=52	=52
6ee-	u ぎ
12ee-'	i R
8r	.
8ff	- の
8ee-L	o しゅ
8ff	u ん
8aa-	n か
8aa-J	a ん
=53	=53
4ee-	n お
8ee-L	o の
8ffJ	o こ
4aa-	o そ
4b-	o か
=54	=54
8ffL	a く
8ff'	u R
8b-	- る
8b-'J	u R
8ffL	- く
8ff'	u R
8b-	- る
8b-'J	u R
=55	=55
8gg-L	- く
8aa-	u る
8gg-	u く
8ffJ	u る
6ee-	u り
12ee-'	i R
4ff	- ま
=56	=56
8ee-L	a わ
8ee-'J	a R
8r	.
8ff	- る
6ee-	u せ
12ee-'	e R
8r	.
8ff	- か
=57	=57
8ee-L	a い
8ff	i に
8ee-	i よ
8ffJ	o お
2r	.
=58	=58
1r	.
=59	=59
1r	.
=60	=60
1r	.
=61	=61
1r	.
=62	=62
1r	.
=63	=63
1r	.
=64	=64
1r	.
=65	=65
1r	.
=66	=66
8.b-L	- ぼ
16b-Jk	o か
8b-L	a ん
[8b-J	n しゃ
8b-L]	.
8e-	a だ
8e-	a け
8d-J	e の
=67	=67
8.e-L	o く
16g-Jk	u か
8g-L	a ん
[8e-J	n れ
8e-L]	.
8e-J	e す
4d-	u お
=68	=68
16.b-LL	o さ
[32b-K	a い
16b-]	.
[16b-JJ	i しゅ
8b-L]	.
[8b-J	u で
32b-KLL]	.
16.b-J	e ん
8a-J	n しゃ
8g-L	a に
8a-J	i の
=69	=69
8.dd-L	o り
[16a-Jk	i こ
32a-KLL]	.
16.a-J	o ん
[8b-J	n で
4.b-]	.
8r	.
=70	=70
16.b-LL	- ぜ
[32b-K	e ん
16b-]	.
[16b-JJ	n ぜ
32b-KLL]	.
16.b-J	e ん
[8ee-J	n い
4ee-]	.
8e-L	i こ
8d-J	o と
=71	=71
8.e-L	o も
16g-Jk	o な
8g-L	a い
[8e-J	i し
4e-]	.
4d-	i ね
=72	=72
8.b-L	e こ
[16b-Jk	o の
8b-L]	.
[8b-J	o て
8b-L]	.
8a-	e お
8g-	o ひ
8a-J	i て
=73	=73
4dd-	e み
4b-	i よ
4a-	o お
4b-	o か
=74	=74
16b-LL	a な
16b-	a ん
16b-	n だ
[16b-JJ	a か
32b-KLL]	.
16.b-J	a い
[8b-J	i つ
8b-L]	.
8e-	u も
8e-	o と
8d-J	o ち
=75	=75
8.e-L	i が
16g-Jk	a う
8g-L	u ん
[8e-J	n め
8e-L]	.
8f	e い
8d-	i の
8d-J	o い
=76	=76
8.b-L	- た
[16b-Jk	a ず
8b-L]	.
[8b-J	u ら
8b-L]	.
8a-	a お
8g-	o し
8a-J	i ん
=77	=77
8.dd-L	n じ
[16ee-Jk	i て
8ee-L]	.
[8dd-J	e み
4dd-]	.
4b-	i る
=78	=78
16.b-LL	- さ
[32b-K	a ん
16b-]	.
[16b-JJ	n ざ
32b-KLL]	.
16.b-J	a ん
[8ee-J	n つ
8ee-L]	.
8e-	u ま
8e-	a ず
8d-J	u い
=79	=79
8.e-L	i た
16g-Jk	a だ
8g-L	a ん
[8e-J	n そ
16e-]	.
16r	.
8r	.
4d-	- そ
=80	=80
8.b-L	o お
[16b-Jk	o も
16b-LL]	.
16b-J	o い
[8b-J	i き
8b-L]	.
8a-	i り
8g-	i ば
8a-J	a か
=81	=81
4dd-	a に
4ee-	i し
4gg-	i よ
4dd-	o か
=82	=82
16b-LL	a つ
16b-	u ま
16b-	a ら
16b-JJ	a ん
16b-LL	n う
16b-	u ご
16b-	o き
16b-JJ	i く
16b-LL	u り
16b-	i か
16b-	a え
16b-JJ	e す
16dd-LL	u い
16dd-J	i み
8b-J	i お
=83	=83
16b-LL	- お
16b-	o と
16b-	o に
16b-JJ	i あ
16b-LL	a わ
16b-	a せ
16b-	e て
16b-JJ	e あ
16b-LL	a し
16b-	i お
16b-	o ふ
16b-JJ	u む
16dd-LL	u わ
16dd-J	a け
8b-J	e お
=84	=84
16b-LL	- さ
16b-	a が
16b-	a し
16b-JJ	i て
8b-L	e も
16b-L	- さ
16b-JJ	a が
16b-LL	a し
16b-J	i て
8b-'J	e も
16b-LL	- み
16b-	i つ
16b-	u か
16b-JJ	a ら
=85	=85
4ee-	a な
4b-	a い
4a-	i か
4b-	a ら
=86	=86
16b-LL	a か
16b-	a な
16b-	a し
16b-JJ	i と
16b-LL	o き
16b-	i に
16b-	i お
16b-JJ	o ど
16b-LL	o り
16b-J	i た
8dd-J	a い
4b-'	i の
=87	=87
16b-LL	- な
16b-	a き
16b-	i た
16b-JJ	a い
16b-LL	i と
16b-	o き
16b-	i に
16b-JJ	i わ
16b-LL	a ら
16b-J	a い
8dd-J	i た
4b-'	a の
=88	=88
8b-L	- そ
8b-	o ん
8b-	n な
8b-J	a わ
8ee-L	a が
8ee-	a ま
8ee-	a ま
8ee-J	a つ
=89	=89
8ffL	u か
8ff	a れ
8ff	e ちゃ
8ffJ	a う
2ff'	u わ
=90	=90
8ffL	- ぽ
8ff	o R
8b-	- ぷ
8b-J	u に
8ffL	i せ
8ff	e ん
8b-	n す
8b-J	u お
=91	=91
8ee-L	o う
8ff	u た
8ee-	a お
8dd-J	o お
4ee-	o か
4ff	a せ
=92	=92
6ee-	e か
[12ee-	a R
8ee-L]	.
8ffJ	- い
[8ee-L	i う
32ee-KL]	.
16.ee-JJ	u R
8r	.
8ff	- つ
=93	=93
8ee-L	u む
8ff	u い
8ee-	i ちゃ
8ffJ	a う
8aa-L	u ま
8aa-J	a え
4b-	e に
=94	=94
[8ffL	i きゅ
32ffKL]	.
16.ffJJ	u R
8b-L	- と
8b-J	o し
8ffL	i ちゃ
8ff	a R
8b-	- た
8b-J	a こ
=95	=95
8gg-L	o こ
8aa-	o ろ
8gg-	o の
8ffJ	o ね
4ee-	e お
4ff	- ど
=96	=96
6ee-	o ぞ
[12ee-	o R
8ee-L]	.
8ffJ	- ま
8ee-L	a だ
8ee-J	a R
8r	.
8ff	- ま
=97	=97
8ee-L	a だ
8ff	a わ
8ee-	a す
8ffJ	u れ
8aa-L	e な
8aa-J	a い
4ccc	i わ
=98	=98
8ffL	a な
8ff	a ん
8b-	n て
8b-J	e き
8ffL	i れ
8ff	e い
8b-	i な
8b-J	a な
=99	=99
8ee-L	a が
8ff	a め
8ee-	e な
8dd-J	a ん
4ee-	n で
4ff	e しょ
=100	=100
6ee-	o か
[12ee-	a R
8ee-L]	.
8ffJ	- こ
8ee-L	o こ
8ee-J	o R
8r	.
8ff	- か
=101	=101
8ee-L	a ら
8ff	a み
8ee-	i え
8ffJ	e る
4aan	u ふ
8b-L	u け
8b-J	e い
=102	=102
4ff	i き
8b-L	- と
8b-J	o な
8ffL	a に
8ff	i ひ
8b-	i と
8b-J	o つ
=103	=103
8gg-L	u か
8aa-	a わ
8gg-	a ら
8ffJ	a な
4ee-	a い
4ff	i か
=104	=104
4ee-	a ら
8r	.
8ff	- か
6ee-	a れ
[12ee-	e R
8ee-L]	.
8ffJ	- た
=105	=105
8ee-L	a じ
8ff	i め
8ee-	e ん
8ffJ	n お
8aa-L	o は
8aa-J	a う
4ccc	u の
=106	=106
[8ffL	- ほ
32ffKL]	.
16.ffJJ	o R
8b-L	- ぷ
8b-J	u す
[8ffL	u て
32ffKL]	.
16.ffJJ	e R
8b-L	- ぷ
8b-J	u で
=107	=107
8ee-L	e お
8ff	o ど
8ee-	o ろ
8dd-J	o お
8.ee-L	o か
16ee-Jk	a R
4ff	せ
=108	=108
[8ee-L	e か
32ee-KL]	.
16.ee-JJ	a R
8r	.
8ff	- い
[8ee-L	i の
32ee-KL]	.
16.ee-JJ	o R
8r	.
8ff	- す
=109	=109
8ee-L	u み
8ff	i い
8ee-	i こ
8ffJ	o で
8aa-L	e わ
8aa-J	a ん
4b-	n つ
=110	=110
[8ffL	u ちょ
32ffKL]	.
16.ffJJ	o R
8b-L	- と
8b-J	o く
[8ffL	u ら
32ffKL]	.
16.ffJJ	a R
8b-L	- と
8b-J	o し
=111	=111
8gg-L	i そ
8aa-	o お
8gg-	o に
8ffJ	i な
4ee-	a る
4ff	- しゅ
=112	=112
[8ee-L	u う
32ee-KL]	.
16.ee-JJ	u R
8r	.
8ff	- ま
8.ee-L	a つ
16ee-Jk	u R
8r	.
8ff	- か
=113	=113
8ee-L	a ん
8ff	n お
8ee-	o た
8ffJ	a の
8aanL	o し
8aaJ	i ん
4ccc	n で
=114	=114
4ff	e ぱ
8b-L	- と
8b-J	o ふ
4ff	u ら
8b-L	- と
8b-J	o き
=115	=115
8ee-L	i え
8ff	e ちゃ
8ee-	a い
8dd-J	i そ
4ee-	o な
4ff	- つ
=116	=116
[8ee-L	u ぎ
32ee-KL]	.
16.ee-JJ	i R
8r	.
8ff	- の
8ee-L	o しゅ
8ff	u ん
8aa-	n か
8aa-J	a ん
=117	=117
4ee-	n お
8ee-L	o の
8ffJ	o こ
4aa-	o そ
4b-	o か
=118	=118
8ffL	a さ
8ff	a R
8b-	- よ
8b-'J	o R
8ffL	- な
8ff	a R
8b-	- ら
8b-'J	a R
=119	=119
8gg-L	- お
8aa-	o げ
8gg-	e ん
8ffJ	n き
6ee-	i で
12ee-'	e R
4ff	- お
=120	=120
8ee-L	o わ
8ee-'J	a R
8r	.
8ff	- る
[8ee-L	u せ
32ee-KL]	.
16.ee-JJ	e R
8r	.
8ff	- か
=121	=121
8ee-L	a い
8ff	i に
8ee-	i よ
8ffJ	o お
2r	.
==	==
*-	*-
